app/dist/common/images/hsino-tower-co-ltd.svg

<svg height="18" viewBox="0 0 18 18" width="18" xmlns="http://www.w3.org/2000/svg" xmlns:xlink="http://www.w3.org/1999/xlink"><linearGradient id="a" gradientUnits="userSpaceOnUse" x1="4.17" x2="14" y1="10.16" y2="10.12"><stop offset="0" stop-color="#eb8725"/><stop offset=".44" stop-color="#e77d27"/><stop offset="1" stop-color="#d53f2f"/></linearGradient><path d="m0 0h18v18h-18z" fill="#f0f3fa"/><g fill="url(#a)"><path d="m4 5.72v6.95h1.72l1.28-1.04v-1.06l-2.61 1.2 2.61-2v-1.88l2.13-2.37h1.87v-1.52h-1.87l-1.06 1.33h-1.07v-1.33h-1.28z"/><path d="m8 8.27v1.18a33.4 33.4 0 0 1 3.89-2.42c-.57.73-2.63 2.54-3.89 3.36v.96c1.34-.89 2.95-2 3.89-2.45-.6.8-2.57 2.54-3.81 3.3l.66.54c1.88-1.21 2.9-1.96 3.51-2.17a63.16 63.16 0 0 1 -4.57 3.43h5.24c.83-.08 1.07-.96 1.08-1.39v-2.65l-1.08-1.06 1.08-1.01v-1.89h-4.55z"/></g></svg>

<!-- by TradingView --><svg width="18" height="18" viewBox="0 0 18 18" xmlns="http://www.w3.org/2000/svg"><path fill="#F0F3FA" d="M0 0h18v18H0z"/><path d="M4 5.72v6.95h1.72L7 11.63v-1.06l-2.61 1.2L7 9.77V7.89l2.13-2.37H11V4H9.13L8.07 5.33H7V4H5.72L4 5.72Z" fill="url(#afsq3sdsc)"/><path d="M8 8.27v1.18a33.4 33.4 0 0 1 3.89-2.42c-.57.73-2.63 2.54-3.89 3.36v.96c1.34-.89 2.95-2 3.89-2.45-.6.8-2.57 2.54-3.81 3.3l.66.54c1.88-1.21 2.9-1.96 3.51-2.17A63.16 63.16 0 0 1 7.68 14h5.24c.83-.08 1.07-.96 1.08-1.39V9.96L12.92 8.9 14 7.89V6H9.45L8 8.27Z" fill="url(#bfsq3sdsc)"/><defs><linearGradient id="afsq3sdsc" x1="4.17" y1="10.16" x2="14" y2="10.12" gradientUnits="userSpaceOnUse"><stop stop-color="#EB8725"/><stop offset=".44" stop-color="#E77D27"/><stop offset="1" stop-color="#D53F2F"/></linearGradient><linearGradient id="bfsq3sdsc" x1="4.17" y1="10.16" x2="14" y2="10.12" gradientUnits="userSpaceOnUse"><stop stop-color="#EB8725"/><stop offset=".44" stop-color="#E77D27"/><stop offset="1" stop-color="#D53F2F"/></linearGradient></defs></svg>
